modules/hawcons-stroke/icons/tornado.svg

<?xml version="1.0" encoding="UTF-8" standalone="no"?>
<svg width="32px" height="32px" viewBox="0 0 32 32" version="1.1" xmlns="http://www.w3.org/2000/svg" xmlns:xlink="http://www.w3.org/1999/xlink" xmlns:sketch="http://www.bohemiancoding.com/sketch/ns">
    <!-- Generator: Sketch 3.0.3 (7891) - http://www.bohemiancoding.com/sketch -->
    <title>icon 58 tornado</title>
    <desc>Created with Sketch.</desc>
    <defs></defs>
    <g id="Page-1" stroke="none" stroke-width="1" fill="none" fill-rule="evenodd" sketch:type="MSPage">
        <g id="icon-58-tornado" sketch:type="MSArtboardGroup" fill="#929292">
            <path d="M27.9593397,4.34912483 C28.3016329,6.44462208 24.8694995,10.4616233 18.8469236,14.0993042 C11.7312624,18.3972168 7.95220947,22.6467896 12.6036985,24.6900024 C18.3752336,27.2252067 17.2755735,29.3588257 17.2755735,29.3588257 C17.2755735,29.3588257 16.7676389,27.9342041 14.3744504,26.9719849 C12.0024037,26.0182658 9.4622194,25.7195435 5.8064575,22.50177 C4.10161878,21.0011842 2.00732424,16.7876587 7.66271966,11.7280884 C9.3960053,9.33454041 6.24767325,7.22053996 4.83014064,5.48685745 C6.58366842,6.97736601 10.9237434,8.03225806 16,8.03225806 C22.2923745,8.03225806 27.4535813,6.41138125 27.9593397,4.34912483 L27.9593397,4.34912483 L27.9593397,4.34912483 Z M3.51795549,3.09677419 C4.55956613,1.38647295 9.11409512,0 16.017284,0 C22.9204728,0 27.3855446,1.64705965 28.5166124,3.09677419 C30.0790285,5.09935736 27.6364411,9.83203892 20.1837273,14.4516129 C13.8294775,18.3903027 9.14478347,22.2210455 12.8924519,23.7419355 C21.8177932,27.3640441 17.0588943,32 17.0588943,32 C17.0588943,32 17.0588947,28.9032253 13.934062,27.8709677 C8.65191269,26.1260613 6.64278758,24.7741935 4.55956617,22.7096774 C2.98366184,21.147923 1.2876824,16.2185972 6.64278762,11.3548387 C9.30758236,8.93454683 1.51950057,6.37819267 3.51795549,3.09677419 L3.51795549,3.09677419 Z M27,4.03225806 C27,2.37540373 22.0751325,1.03225806 16,1.03225806 C9.92486745,1.03225806 5,2.37540373 5,4.03225806 C5,5.6891124 9.92486745,7.03225806 16,7.03225806 C22.0751325,7.03225806 27,5.6891124 27,4.03225806 L27,4.03225806 Z" id="tornado" sketch:type="MSShapeGroup"></path>
        </g>
    </g>
</svg>

<svg width="32" height="32" viewBox="0 0 32 32" xmlns="http://www.w3.org/2000/svg"><path d="M27.96 4.35c.342 2.095-3.09 6.112-9.113 9.75-7.116 4.297-10.895 8.547-6.243 10.59 5.771 2.535 4.672 4.669 4.672 4.669s-.508-1.425-2.902-2.387c-2.372-.954-4.912-1.252-8.568-4.47-1.704-1.5-3.799-5.714 1.857-10.774C9.396 9.335 6.248 7.221 4.83 5.487 6.584 6.977 10.924 8.032 16 8.032c6.292 0 11.454-1.62 11.96-3.683zM3.517 3.096C4.56 1.387 9.114 0 16.018 0c6.902 0 11.368 1.647 12.499 3.097 1.562 2.002-.88 6.735-8.333 11.355-6.355 3.938-11.04 7.769-7.292 9.29C21.818 27.364 17.06 32 17.06 32s0-3.097-3.125-4.129c-5.282-1.745-7.291-3.097-9.374-5.161-1.576-1.562-3.272-6.491 2.083-11.355 2.665-2.42-5.123-4.977-3.125-8.258zM27 4.032c0-1.657-4.925-3-11-3s-11 1.343-11 3 4.925 3 11 3 11-1.343 11-3z" fill="#929292" fill-rule="evenodd"/></svg>
